usr/share/icons/biglinux-icons-material-dark/22/actions/mail-receive.svg

<svg version="1.1" viewBox="0 0 22 22" xmlns="http://www.w3.org/2000/svg">
 <defs>
  <style id="current-color-scheme" type="text/css">.ColorScheme-Text {
        color:#dedede;
      }</style>
 </defs>
 <path class="ColorScheme-Text" d="m10.5 2c-0.277 0-0.5 0.223-0.5 0.5v6.793l-1.2676-1.2676c-0.19587-0.19587-0.51116-0.19587-0.70703 0s-0.19587 0.51116 0 0.70703l2.1211 2.1211c0.04701 0.04701 0.10324 0.08407 0.16602 0.10938 0.0579 0.02334 0.12105 0.03711 0.1875 0.03711s0.1296-0.01377 0.1875-0.03711c0.06278-0.0253 0.119-0.06236 0.16602-0.10938l2.1211-2.1211c0.19587-0.19587 0.19587-0.51116 0-0.70703s-0.51116-0.19587-0.70703 0l-1.2676 1.2676v-6.793c0-0.277-0.223-0.5-0.5-0.5zm-3.5 4.0293c-1.1408 0.13511-1.8836 0.84678-2.1699 1.2207l-2.625 3.4277c-0.13316 0.17448-0.20523 0.38793-0.20508 0.60742v5.7148c0 1.108 0.892 2 2 2h13c1.108 0 1.9979-0.892 2-2v-5.7148c1.48e-4 -0.21949-0.07192-0.43294-0.20508-0.60742l-2.625-3.4277c-0.28628-0.37392-1.0291-1.0856-2.1699-1.2207v1.0156c0.76278 0.10437 1.1244 0.48517 1.375 0.8125l2.4062 3.1426h-4.8321c-0.23757 1.1639-1.2613 1.9999-2.4492 2-1.1864-2e-3 -2.208-0.83756-2.4453-2h-4.8359l2.4062-3.1426c0.25061-0.32733 0.61222-0.70813 1.375-0.8125v-1.0156zm-4 5.9707h4.3418c0.57875 1.2201 1.8078 1.9984 3.1582 2 1.3483-0.0038 2.5745-0.78181 3.1523-2h4.3477v5c0 0.554-0.446 1-1 1h-13c-0.554 0-1-0.446-1-1z" fill="currentColor"/>
</svg>

<svg xmlns="http://www.w3.org/2000/svg" viewBox="0 0 22 22">
<defs>
<style id="current-color-scheme" type="text/css">
.ColorScheme-Text{color:#dedede}
</style>
</defs>
<path fill="currentColor" d="M10.5 2c-.277 0-.5.223-.5.5v6.793L8.732 8.025a.499.499 0 1 0-.707.707l2.121 2.122a.5.5 0 0 0 .541.109.5.5 0 0 0 .167-.11l2.12-2.12a.499.499 0 1 0-.706-.708L11 9.293V2.5c0-.277-.223-.5-.5-.5M7 6.03a3.3 3.3 0 0 0-2.17 1.22l-2.625 3.428a1 1 0 0 0-.205.607V17c0 1.108.892 2 2 2h13a1.997 1.997 0 0 0 2-2v-5.715a1 1 0 0 0-.205-.607L16.17 7.25A3.3 3.3 0 0 0 14 6.03v1.015c.763.104 1.124.485 1.375.812L17.781 11H12.95a2.5 2.5 0 0 1-2.45 2 2.5 2.5 0 0 1-2.444-2H3.219l2.406-3.143c.25-.327.612-.708 1.375-.812zM3 12h4.342a3.5 3.5 0 0 0 3.158 2 3.5 3.5 0 0 0 3.152-2H18v5c0 .554-.446 1-1 1H4c-.554 0-1-.446-1-1z" class="ColorScheme-Text"/>
</svg>
